X: 24700
T: MacNeils Of Ugadale, The
R: jig
M: 6/8
K: Amajor
c>dB A>AA|c<ee e>cA|f>ec e>fa|a>ec B2 a|
c>dB A>AA|c<ee e>cA|c<dB e>fc|A>AA A2:|
a>gf e2 a|e>fe e>cA|a>gf e2 a|a>ec B2 e|
1 a>gf e2 a|e>fe e>cA|c<dB e>fc|A>AA A2:|
2 c>dB A>AA|c<ee e>cA|c<dB e>fc|A>AA A2||
c3 A3|c<ee e>cA|f3 d2 a|a>ec B2 a|
c3 A3|c<ee e>cA|c<dB e>fc|A>AA A2:|
f2 a d2 a|e>fe e>cA|f2 a d2 a|a>ec B2 e|
1 f2 a d2 a|e>fe e>cA|c<dB e>fc|A>AA A2:|
2 c>dB e>fc|a>gf e>cA|c<dB e>fc|A>AA A2||

